X:16529
T:The Brown Haired Girl
R:Jig
S:(Sharon shannon)
H:
N:See also Dog Big and Dog Little/Seamus Quinn
D:Galway Arts Festival Concert
Z:Adrian Scahill
M:6/8
L:1/8
K:D
F2A GEE|FED ECA,|F2A GEE|EDC D2E:||\
d3 dBA|Bcd AFD|d3 dBA|Bcd A2G|\
F2A GEE|FED ECA,|F2A GEE|EDD D3||
